X:99
C:Page 48
T:New Rigg’d Ship. MBe.99
S:Matthew Betham MS, Towcett Cumbria, 1815
O:England;Cumbria;Towcett
Z:VMP – Hugh Taylor, 2012
M:6/8
L:1/8
Q:3/8=100
R:.Jig
N:I expected an ‘A’ note here, but a ‘G’ is written.
K:D
A|d2 d ~d2 f|d2 d ~d2 f|ecA A2 c|ecA ABc|
d2 d d2 f|d2 d ecA|B>cd ecA|d3 d2:|
|:f/g/|a2 f a2 f|d2 ~d dfa|b2 g b2 g|e2 ~e efg|
a2 f a2 f|d2 d ec”^NB”G|B>cd ecA|d3 d2:|

